X: 38
T:Hunting the Hare Reel
M:4/4
L:1/8
Q:1/8=150
K:G
(3def|g2 G2 B>c d2|e>a g2 f>e (3def|g2 G2 B>c d2|1  e2 a>f g2|2
e2 a>f g3||
a|b>a ga  b>a ga|b>a b>a b>a g2|a2 fg  a2 fg|c'2 b2 a2 (3def
|g2 G2 B>c d2|
e>a g2 f>e (3def|g2 G2 B>c d2|e2 a>f g3:||
